X:98
T:Colledge Hornpipe, The
S:John Moore's Book 2
Z:Transcribed by Steve Mansfield 05/2021
%%VWML: Moore2-4494-p75-0
F:http://www.vwml.org/record/Moore2/4494/p75
M:C
L:1/8
K:D
(dc) | d2D2 D2 (cB) | (FA).d.c d2(fd) | e2E2 E2(ed) | c2a2 a2(bc') | 
(d'c')ba (ba)gf | (gf).e.d (dc).B.A | Bdce dfeg | f2d2d2 :|
|: (AG) | (FA)dA FA dA | B2G2 G2(BA) | GB dB GB dB | c2A2 A2(ab) | 
(d'c')ba (ba)gf | (gf).e.d (dc).B.A | Bdce dfeg | f2d2d2 :|

